;FLAVOR:Marlin
;TIME:3863
;Filament used: 3.27615m
;Layer height: 0.2
;MINX:50.088
;MINY:4.266
;MINZ:0.2
;MAXX:172.003
;MAXY:204.418
;MAXZ:6.2
;Generated with Cura_SteamEngine 4.13.0
M82 ;absolute extrusion mode
G21                                        ; metric values
G90                                        ; absolute positioning
M82                                        ; set extruder to absolute mode
M107                                       ; start with the fan off
M190 S60   ; preheat and wait for bed
M109 S200 ; preheat and wait for hotend
M300 S1000 P500                            ; BEEP heating done
G28 X0 Y10 Z0                              ; move X/Y to min endstops
M420 S1                                    ; enable mesh leveling
G0 Z0.15                                   ; lift nozzle a bit
G0 X2                                      ; move away from clips
G92 E0                                     ; zero the extruded length
G1 Y50 E25 F500                            ; Extrude 25mm of filament in a 5cm line.
G92 E0                                     ; zero the extruded length again
G1 E-2 F500                                ; Retract a little
G1 Y120 F4000                              ; Quickly wipe away from the filament line
G92 E0
G92 E0
G1 F2400 E-6
;LAYER_COUNT:6
;LAYER:0
M107
M204 S3000
M205 X10 Y10
G1 F600 Z0.275
G0 F3000 X52.399 Y10.257 Z0.275
M204 S1800
M205 X8 Y8
;TYPE:SKIRT
G1 F600 Z0.2
G1 F2400 E0
G1 X52.572 Y9.563 E0.0333
G1 X52.791 Y8.948 E0.0637
G1 X53.08 Y8.294 E0.097
G1 X53.566 Y7.495 E0.14054
G1 X53.737 Y7.255 E0.15427
G1 X54.184 Y6.697 E0.18756
G1 X54.928 Y5.99 E0.23535
G1 X55.089 Y5.86 E0.24498
G1 X55.67 Y5.442 E0.27831
G1 X56.188 Y5.145 E0.30612
G1 X56.377 Y5.048 E0.31601
G1 X57.03 Y4.758 E0.34928
G1 X57.681 Y4.55 E0.3811
G1 X57.88 Y4.498 E0.39068
G1 X58.581 Y4.356 E0.42398
G1 X59.369 Y4.291 E0.4608
G1 X60.556 Y4.267 E0.51608
G1 X159.896 Y4.266 E5.14177
G1 X160.827 Y4.279 E5.18512
G1 X161.383 Y4.305 E5.21104
G1 X162.043 Y4.37 E5.24192
G1 X162.713 Y4.475 E5.2735
G1 X163.259 Y4.592 E5.2995
G1 X164.029 Y4.808 E5.33674
G1 X164.667 Y5.028 E5.36817
G1 X165.223 Y5.257 E5.39617
G1 X165.784 Y5.526 E5.42514
G1 X166.421 Y5.877 E5.459
G1 X166.868 Y6.156 E5.48354
G1 X167.55 Y6.644 E5.52259
G1 X168.044 Y7.045 E5.55222
G1 X168.512 Y7.473 E5.58175
G1 X168.953 Y7.925 E5.61115
G1 X169.443 Y8.487 E5.64587
G1 X169.79 Y8.938 E5.67237
G1 X170.191 Y9.525 E5.70547
G1 X170.529 Y10.086 E5.73597
G1 X170.827 Y10.65 E5.76567
G1 X171.109 Y11.275 E5.7976
G1 X171.36 Y11.928 E5.83017
G1 X171.531 Y12.46 E5.85619
G1 X171.711 Y13.164 E5.89003
G1 X171.848 Y13.863 E5.9232
G1 X171.926 Y14.446 E5.95059
G1 X171.977 Y15.126 E5.98234
G1 X171.985 Y15.31 E5.99091
G1 X172.001 Y15.894 E6.01812
G1 X172.003 Y16.069 E6.02627
G1 X172.002 Y90.051 E9.47118
G1 X171.99 Y90.89 E9.51025
G1 X171.964 Y91.446 E9.53617
G1 X171.898 Y92.108 E9.56715
G1 X171.796 Y92.766 E9.59815
G1 X171.684 Y93.293 E9.62324
G1 X171.479 Y94.037 E9.65917
G1 X171.26 Y94.68 E9.6908
G1 X171.032 Y95.241 E9.719
G1 X170.711 Y95.909 E9.75351
G1 X170.375 Y96.517 E9.78586
G1 X170.068 Y96.999 E9.81247
G1 X169.625 Y97.613 E9.84772
G1 X169.158 Y98.182 E9.882
G1 X168.588 Y98.782 E9.92053
G1 X167.943 Y99.372 E9.96124
G1 X167.475 Y99.747 E9.98916
G1 X167.021 Y100.072 E10.01516
G1 X166.533 Y100.388 E10.04223
G1 X165.973 Y100.707 E10.07224
G1 X165.283 Y101.047 E10.10806
G1 X164.76 Y101.269 E10.13452
G1 X164.018 Y101.529 E10.17113
G1 X163.417 Y101.7 E10.20022
G1 X162.922 Y101.815 E10.22389
G1 X162.406 Y101.911 E10.24833
G1 X161.813 Y101.99 E10.27618
G1 X161.145 Y102.04 E10.30737
G1 X160.959 Y102.048 E10.31604
G1 X160.374 Y102.064 E10.34329
G1 X160.199 Y102.066 E10.35144
G1 X95.65 Y102.066 E13.35711
G1 X59.154 Y102.049 E15.05652
G1 X58.532 Y102.04 E15.08549
G1 X57.819 Y101.99 E15.11877
G1 X57.115 Y101.86 E15.1521
G1 X56.431 Y101.653 E15.18538
G1 X55.774 Y101.371 E15.21867
G1 X55.152 Y101.017 E15.252
G1 X54.574 Y100.596 E15.28529
G1 X53.927 Y99.987 E15.32667
G1 X53.89 Y99.947 E15.32921
G1 X53.434 Y99.395 E15.36254
G1 X53.043 Y98.797 E15.39581
G1 X52.721 Y98.158 E15.42913
G1 X52.472 Y97.487 E15.46246
G1 X52.3 Y96.793 E15.49575
G1 X52.19 Y95.777 E15.54334
G1 X52.179 Y95.27 E15.56695
G1 X52.202 Y54.075 E17.48516
G1 X52.194 Y52.797 E17.54467
G1 X52.186 Y52.097 E17.57727
G1 X52.216 Y39.833 E18.14834
G1 X52.252 Y12.254 E19.43253
G1 X52.261 Y11.702 E19.45824
G1 X52.305 Y10.966 E19.49257
G1 X52.399 Y10.257 E19.52587
M204 S3000
M205 X10 Y10
G0 F3000 X52.955 Y10.331
M204 S1800
M205 X8 Y8
G1 F2400 X53.224 Y9.387 E19.57158
G1 X53.315 Y9.146 E19.58357
G1 X53.593 Y8.522 E19.61538
G1 X54.022 Y7.82 E19.65369
G1 X54.193 Y7.58 E19.66741
G1 X54.621 Y7.048 E19.69921
G1 X55.28 Y6.425 E19.74144
G1 X55.441 Y6.295 E19.75107
G1 X55.997 Y5.898 E19.78288
G1 X56.443 Y5.643 E19.80681
G1 X56.632 Y5.546 E19.8167
G1 X57.257 Y5.27 E19.84851
G1 X57.823 Y5.092 E19.87614
G1 X58.022 Y5.04 E19.88572
G1 X58.692 Y4.906 E19.91753
G1 X59.38 Y4.851 E19.94967
G1 X60.685 Y4.826 E20.01045
G1 X159.896 Y4.826 E24.63013
G1 X160.819 Y4.839 E24.67311
G1 X161.35 Y4.864 E24.69786
G1 X161.98 Y4.927 E24.72735
G1 X162.603 Y5.024 E24.75671
G1 X163.123 Y5.135 E24.78146
G1 X163.87 Y5.345 E24.8176
G1 X164.46 Y5.549 E24.84666
G1 X165.001 Y5.772 E24.87391
G1 X165.534 Y6.027 E24.90142
G1 X166.128 Y6.354 E24.933
G1 X166.558 Y6.622 E24.95659
G1 X167.217 Y7.094 E24.99434
G1 X167.671 Y7.463 E25.02158
G1 X168.126 Y7.879 E25.05029
G1 X168.547 Y8.311 E25.07837
G1 X169.004 Y8.835 E25.11075
G1 X169.342 Y9.273 E25.13651
G1 X169.723 Y9.833 E25.16805
G1 X170.038 Y10.355 E25.19644
G1 X170.327 Y10.902 E25.22525
G1 X170.595 Y11.498 E25.25567
G1 X170.828 Y12.103 E25.28586
G1 X170.996 Y12.624 E25.31135
G1 X171.167 Y13.293 E25.34351
G1 X171.294 Y13.945 E25.37444
G1 X171.37 Y14.512 E25.40107
G1 X171.418 Y15.158 E25.43124
G1 X171.425 Y15.325 E25.43902
G1 X171.441 Y15.909 E25.46622
G1 X171.443 Y16.069 E25.47368
G1 X171.442 Y90.043 E28.91821
G1 X171.43 Y90.882 E28.95729
G1 X171.405 Y91.413 E28.98204
G1 X171.342 Y92.045 E29.01161
G1 X171.247 Y92.656 E29.04041
G1 X171.14 Y93.16 E29.0644
G1 X170.942 Y93.878 E29.09908
G1 X170.739 Y94.475 E29.12844
G1 X170.521 Y95.014 E29.15551
G1 X170.21 Y95.659 E29.18886
G1 X169.898 Y96.223 E29.21887
G1 X169.6 Y96.691 E29.2447
G1 X169.175 Y97.28 E29.27852
G1 X168.733 Y97.817 E29.31091
G1 X168.202 Y98.376 E29.34681
G1 X167.587 Y98.94 E29.38567
G1 X167.141 Y99.297 E29.41227
G1 X166.712 Y99.604 E29.43683
G1 X166.243 Y99.909 E29.46288
G1 X165.704 Y100.216 E29.49177
G1 X165.06 Y100.533 E29.52519
G1 X164.548 Y100.75 E29.55108
G1 X163.843 Y100.997 E29.58587
G1 X163.287 Y101.156 E29.6128
G1 X162.649 Y101.3 E29.64325
G1 X162.101 Y101.39 E29.66911
G1 X161.397 Y101.465 E29.70208
G1 X160.944 Y101.488 E29.7232
G1 X160.359 Y101.504 E29.75045
G1 X160.199 Y101.506 E29.7579
G1 X95.65 Y101.506 E32.76357
G1 X59.163 Y101.489 E34.46256
G1 X58.541 Y101.48 E34.49152
G1 X57.859 Y101.431 E34.52336
G1 X57.188 Y101.301 E34.55519
G1 X56.537 Y101.095 E34.58698
G1 X55.914 Y100.814 E34.61881
G1 X55.329 Y100.462 E34.6506
G1 X54.788 Y100.044 E34.68243
G1 X54.338 Y99.607 E34.71164
G1 X54.301 Y99.567 E34.71418
G1 X53.867 Y99.039 E34.746
G1 X53.498 Y98.464 E34.77782
G1 X53.198 Y97.85 E34.80964
G1 X52.973 Y97.205 E34.84145
G1 X52.824 Y96.538 E34.87327
G1 X52.75 Y95.762 E34.90957
G1 X52.739 Y95.271 E34.93244
G1 X52.762 Y54.076 E36.85065
G1 X52.754 Y52.793 E36.91039
G1 X52.746 Y52.099 E36.94271
G1 X52.776 Y39.835 E37.51377
G1 X52.812 Y12.263 E38.79764
G1 X52.821 Y11.711 E38.82335
G1 X52.864 Y11.008 E38.85615
G1 X52.955 Y10.331 E38.88795
M204 S3000
M205 X10 Y10
G0 F3000 X53.511 Y10.407
M204 S1800
M205 X8 Y8
G1 F2400 X53.747 Y9.585 E38.92778
G1 X53.838 Y9.344 E38.93977
G1 X54.105 Y8.751 E38.97005
G1 X54.478 Y8.145 E39.00319
G1 X54.649 Y7.905 E39.01691
G1 X55.058 Y7.4 E39.04717
G1 X55.632 Y6.861 E39.08383
G1 X55.793 Y6.731 E39.09347
G1 X56.323 Y6.355 E39.12373
G1 X56.888 Y6.045 E39.15374
G1 X57.483 Y5.784 E39.18399
G1 X57.964 Y5.634 E39.20745
G1 X58.163 Y5.582 E39.21703
G1 X58.801 Y5.456 E39.24731
G1 X59.391 Y5.411 E39.27486
G1 X60.685 Y5.386 E39.33513
G1 X159.896 Y5.386 E43.95481
G1 X160.811 Y5.399 E43.99742
G1 X161.317 Y5.423 E44.02101
G1 X161.917 Y5.483 E44.04909
G1 X162.492 Y5.573 E44.07619
G1 X162.988 Y5.679 E44.0998
G1 X163.711 Y5.882 E44.13477
G1 X164.253 Y6.069 E44.16147
G1 X164.779 Y6.286 E44.18796
G1 X165.285 Y6.529 E44.2141
G1 X165.834 Y6.831 E44.24328
G1 X166.329 Y7.142 E44.2705
G1 X166.883 Y7.544 E44.30237
G1 X167.299 Y7.881 E44.3273
G1 X167.741 Y8.285 E44.35518
G1 X168.141 Y8.696 E44.38189
G1 X168.565 Y9.182 E44.41192
G1 X168.894 Y9.609 E44.43702
G1 X169.256 Y10.141 E44.46699
G1 X169.547 Y10.624 E44.49324
G1 X169.827 Y11.154 E44.52115
G1 X170.081 Y11.72 E44.55004
G1 X170.296 Y12.278 E44.57789
G1 X170.46 Y12.788 E44.60283
G1 X170.622 Y13.422 E44.6333
G1 X170.74 Y14.027 E44.662
G1 X170.814 Y14.578 E44.68789
G1 X170.859 Y15.189 E44.71642
G1 X170.865 Y15.34 E44.72346
G1 X170.881 Y15.924 E44.75066
G1 X170.883 Y16.069 E44.75741
G1 X170.882 Y90.035 E48.20158
G1 X170.87 Y90.874 E48.24065
G1 X170.846 Y91.38 E48.26424
G1 X170.785 Y91.982 E48.29241
G1 X170.698 Y92.545 E48.31894
G1 X170.559 Y93.178 E48.34912
G1 X170.405 Y93.719 E48.37531
G1 X170.217 Y94.27 E48.40242
G1 X170.009 Y94.786 E48.42832
G1 X169.708 Y95.41 E48.46058
G1 X169.421 Y95.93 E48.48824
G1 X169.133 Y96.383 E48.51324
G1 X168.725 Y96.946 E48.54561
G1 X168.308 Y97.452 E48.57614
G1 X167.817 Y97.969 E48.60934
G1 X167.231 Y98.507 E48.64639
G1 X166.807 Y98.848 E48.67172
G1 X166.125 Y99.321 E48.71037
G1 X165.645 Y99.61 E48.73646
G1 X165.115 Y99.89 E48.76437
G1 X164.549 Y100.144 E48.79326
G1 X163.991 Y100.359 E48.8211
G1 X163.464 Y100.528 E48.84687
G1 X162.85 Y100.684 E48.87637
G1 X162.242 Y100.803 E48.90522
G1 X161.682 Y100.878 E48.93153
G1 X161.082 Y100.922 E48.95954
G1 X160.928 Y100.928 E48.96672
G1 X160.343 Y100.944 E48.99397
G1 X160.199 Y100.946 E49.00067
G1 X95.651 Y100.946 E52.0063
G1 X59.171 Y100.929 E53.70496
G1 X58.549 Y100.92 E53.73393
G1 X57.901 Y100.871 E53.76419
G1 X57.264 Y100.743 E53.79444
G1 X56.648 Y100.537 E53.82469
G1 X56.062 Y100.257 E53.85493
G1 X55.514 Y99.907 E53.8852
G1 X55.014 Y99.493 E53.91543
G1 X54.712 Y99.186 E53.93548
G1 X54.301 Y98.683 E53.96573
G1 X53.955 Y98.133 E53.99599
G1 X53.679 Y97.545 E54.02623
G1 X53.477 Y96.928 E54.05646
G1 X53.353 Y96.29 E54.08673
G1 X53.31 Y95.746 E54.11214
G1 X53.299 Y95.271 E54.13426
G1 X53.322 Y54.076 E56.05247
G1 X53.314 Y52.79 E56.11236
G1 X53.306 Y52.1 E56.14449
G1 X53.336 Y39.836 E56.71555
G1 X53.372 Y12.272 E57.99905
G1 X53.381 Y11.72 E58.02476
G1 X53.422 Y11.051 E58.05597
G1 X53.511 Y10.407 E58.08624
M204 S3000
M205 X10 Y10
G1 F2400 E52.08624
;MESH:top_plate.stl(1)
G0 F3000 X59.621 Y10.002
G0 X74.257 Y10.001
G0 X74.257 Y11.32
G0 X75.643 Y23.935
M204 S1800
M205 X8 Y8
;TYPE:WALL-INNER
G1 F2400 E58.08624
G1 F1200 X75.563 Y23.935 E58.08996
G1 X75.563 Y12.626 E58.61656
G1 X75.643 Y12.626 E58.62028
G1 X75.643 Y23.935 E58.69551
M204 S3000
M205 X10 Y10
G0 F3000 X77.295 Y11.858
G0 X91.911 Y11.858
G0 X93.643 Y12.626
M204 S1800
M205 X8 Y8
G1 F1200 X93.643 Y93.706 E62.47094
G1 X93.563 Y93.705 E62.47466
G1 X93.563 Y12.626 E63.01398
G1 X93.643 Y12.626 E63.01771
M204 S3000
M205 X10 Y10
G0 F3000 X95.295 Y11.858
G0 X127.911 Y11.858
G0 X131.295 Y26.474
G0 X145.911 Y26.474
G0 X147.643 Y23.935
M204 S1800
M205 X8 Y8
G1 F1200 X147.563 Y23.935 E63.02143
G1 X147.563 Y12.626 E63.54803
G1 X147.643 Y12.626 E63.55175
G1 X147.643 Y23.935 E63.62698
M204 S3000
M205 X10 Y10
G0 F3000 X149.396 Y26.63
G0 X149.997 Y27.245
G0 X149.997 Y28.087
G0 X149.396 Y28.702
G0 X147.643 Y74.435
M204 S1800
M205 X8 Y8
G1 F1200 X147.563 Y74.435 E63.6307
G1 X147.563 Y31.397 E65.63473
G1 X147.643 Y31.397 E65.63846
G1 X147.643 Y74.435 E65.92475
M204 S3000
M205 X10 Y10
G0 F3000 X149.295 Y62.858
G0 X163.911 Y62.858
G0 X163.911 Y77.474
G0 X148.819 Y80.271
G0 X147.643 Y93.706
M204 S1800
M205 X8 Y8
G1 F1200 X147.563 Y93.706 E65.92847
G1 X147.563 Y81.847 E66.48068
G1 X147.643 Y81.847 E66.4844
G1 X147.643 Y93.706 E66.56329
M204 S3000
M205 X10 Y10
G0 F3000 X145.911 Y94.474
G0 X131.295 Y94.474
G0 X129.643 Y93.706
M204 S1800
M205 X8 Y8
G1 F1200 X129.563 Y93.706 E66.56701
G1 X129.563 Y12.626 E70.34244
G1 X129.643 Y12.626 E70.34616
G1 X129.643 Y93.706 E70.88551
M204 S3000
M205 X10 Y10
G0 F3000 X128.271 Y79.498
G0 X112.935 Y79.498
G0 X111.643 Y93.706
M204 S1800
M205 X8 Y8
G1 F1200 X111.563 Y93.706 E70.88924
G1 X111.563 Y12.626 E74.66466
G1 X111.643 Y12.626 E74.66838
G1 X111.643 Y93.706 E75.20773
M204 S3000
M205 X10 Y10
G0 F3000 X109.911 Y94.474
G0 X77.295 Y94.474
G0 X75.643 Y82.617
M204 S1800
M205 X8 Y8
G1 F1200 X75.643 Y93.698 E75.72371
G1 X75.563 Y93.697 E75.72743
G1 X75.563 Y82.602 E75.80184
G1 X75.643 Y82.617 E75.80563
M204 S3000
M205 X10 Y10
G0 F3000 X74.062 Y79.954
G0 X73.46 Y79.337
G0 X73.46 Y78.495
G0 X75.643 Y75.215
M204 S1800
M205 X8 Y8
G1 F1200 X75.563 Y75.23 E75.80942
G1 X75.563 Y31.397 E77.85047
G1 X75.643 Y31.397 E77.85419
G1 X75.643 Y75.215 E78.14719
M204 S3000
M205 X10 Y10
G0 F3000 X74.271 Y62.498
G0 X59.295 Y62.498
G0 X59.295 Y77.834
G0 X72.733 Y78.766
M204 S1800
M205 X8 Y8
G1 F1200 X59.988 Y78.766 E78.74065
G1 X59.989 Y78.566 E78.74997
G1 X72.733 Y78.566 E78.96188
G1 X72.733 Y78.766 E78.9712
M204 S3000
M205 X10 Y10
G0 F3000 X73.687 Y79.649
G0 X75.853 Y82.085
M204 S1800
M205 X8 Y8
G1 F1200 X76.203 Y82.023 E78.98775
G1 X76.203 Y94.258 E79.55746
G1 X75.003 Y94.257 E79.61334
G1 X75.003 Y81.934 E80.18715
G1 X75.853 Y82.085 E80.22735
M204 S3000
M205 X10 Y10
G0 F3000 X74.062 Y79.954
G0 X73.46 Y79.337
G0 X73.46 Y78.495
G0 X74.062 Y77.88
G0 X74.289 Y77.055
G0 X75.022 Y76.633
G0 X75.853 Y76.485
G0 X76.684 Y76.633
G0 X77.182 Y77.329
G0 X94.203 Y78.766
M204 S1800
M205 X8 Y8
G1 F1200 X94.203 Y94.266 E80.94909
G1 X93.003 Y94.265 E81.00497
G1 X93.003 Y78.766 E81.72667
G1 X78.974 Y78.766 E82.37992
G1 X78.974 Y78.566 E82.38923
G1 X93.003 Y78.566 E82.62253
G1 X93.003 Y61.766 E83.40481
G1 X76.203 Y61.766 E84.18709
G1 X76.203 Y75.809 E84.84099
G1 X75.853 Y75.747 E84.85754
G1 X75.003 Y75.898 E84.89774
G1 X75.003 Y61.766 E85.55579
G1 X59.998 Y61.766 E86.25448
G1 X59.998 Y61.566 E86.26379
G1 X75.003 Y61.566 E86.51333
G1 X75.003 Y44.766 E87.29561
G1 X60.004 Y44.766 E87.99402
G1 X60.005 Y44.566 E88.00334
G1 X75.003 Y44.566 E88.25274
G1 X75.003 Y30.729 E88.89705
G1 X75.603 Y30.835 E88.92542
G1 X76.203 Y30.729 E88.95379
G1 X76.203 Y44.566 E89.5981
G1 X93.003 Y44.566 E90.38038
G1 X93.003 Y27.766 E91.16266
G1 X78.724 Y27.766 E91.82755
G1 X78.724 Y27.566 E91.83686
G1 X93.003 Y27.566 E92.07432
G1 X93.003 Y12.066 E92.79606
G1 X94.203 Y12.066 E92.85194
G1 X94.203 Y27.566 E93.57369
G1 X111.003 Y27.566 E94.35596
G1 X111.003 Y12.066 E95.07771
G1 X112.203 Y12.066 E95.13359
G1 X112.203 Y27.566 E95.85533
G1 X129.003 Y27.566 E96.63761
G1 X129.003 Y12.066 E97.35936
G1 X130.203 Y12.066 E97.41523
G1 X130.203 Y27.566 E98.13698
G1 X144.483 Y27.566 E98.80191
G1 X144.483 Y27.766 E98.81123
G1 X130.203 Y27.766 E99.0487
G1 X130.203 Y44.566 E99.83098
G1 X147.003 Y44.566 E100.61326
G1 X147.003 Y30.729 E101.25757
G1 X147.603 Y30.835 E101.28594
G1 X148.203 Y30.729 E101.31431
G1 X148.203 Y44.566 E101.95862
G1 X164.203 Y44.566 E102.70365
G1 X164.203 Y44.766 E102.71296
G1 X148.203 Y44.766 E102.97904
G1 X148.203 Y61.566 E103.76132
G1 X164.203 Y61.566 E104.50635
G1 X164.203 Y61.766 E104.51566
G1 X148.203 Y61.766 E104.78174
G1 X148.203 Y75.104 E105.40281
G1 X147.603 Y74.997 E105.43119
G1 X147.003 Y75.104 E105.45957
G1 X147.003 Y61.766 E106.08065
G1 X130.203 Y61.766 E106.86292
G1 X130.203 Y78.566 E107.6452
G1 X144.506 Y78.566 E108.31121
G1 X144.541 Y78.766 E108.32066
G1 X130.203 Y78.766 E108.55963
G1 X130.203 Y94.266 E109.28137
G1 X129.003 Y94.266 E109.33725
G1 X129.003 Y78.766 E110.059
G1 X112.203 Y78.766 E110.84128
G1 X112.203 Y94.266 E111.56302
G1 X111.003 Y94.266 E111.6189
G1 X111.003 Y78.766 E112.34064
G1 X94.203 Y78.766 E113.12292
M204 S3000
M205 X10 Y10
G0 F3000 X94.203 Y61.766
M204 S1800
M205 X8 Y8
G1 F1200 X94.203 Y78.566 E113.9052
G1 X111.003 Y78.566 E114.18458
G1 X111.003 Y61.766 E114.96686
